icons/speech-bubble-arrow-up-outline.svg

<svg xmlns="http://www.w3.org/2000/svg" width="24" height="24" viewBox="0 0 24 24">
  <path d="M15,3 C19.5522847,3 23,6.44771525 23,11 C23,15.5522847 19.5522847,19 15,19 L15,19 L14.492,19 L14.4215793,19.0906275 C13.7103901,19.9663638 12.948642,20.6393906 11.8907103,21.256749 L11.8907103,21.256749 L11.5946555,21.4238497 L11.2369286,21.6140163 L10.9086251,21.7821926 C9.57755795,22.4597178 8,21.4937799 8,20 L8,20 L8,19 C4.27285013,19 1,15.3634999 1,11 C1,6.5377729 4.49099359,3 9,3 L9,3 Z M15,5 L9,5 C5.60156611,5 3,7.6364271 3,11 C3,14.3031668 5.42714987,17 8,17 L8,17 L9,17 C9.55228475,17 10,17.4477153 10,18 L10,18 L10,19.999 L10.3113445,19.8411503 L10.6455572,19.6634269 C11.7740931,19.0468761 12.4641772,18.4017399 13.194037,17.4080341 C13.3824481,17.1515119 13.6817197,17 14,17 L14,17 L15,17 C18.4477153,17 21,14.4477153 21,11 C21,7.55228475 18.4477153,5 15,5 L15,5 Z M12,7 L12.019,7.001 L12.026,7 L12.08,7.003 L12.1489612,7.01101934 L12.1489612,7.01101934 C12.165949,7.01362808 12.1833753,7.01670217 12.2007258,7.02024007 C12.2227461,7.0246398 12.2444365,7.02983363 12.2658396,7.03572097 C12.2814633,7.04009773 12.2968513,7.04472872 12.3121425,7.04973809 C12.3317977,7.05612249 12.3515792,7.06331574 12.3710585,7.07110396 L12.4232215,7.09367336 L12.4232215,7.09367336 C12.4438914,7.10337664 12.4642939,7.11379392 12.484277,7.12487577 C12.4963944,7.13149883 12.5086131,7.13860692 12.5207088,7.14599545 C12.546275,7.1617187 12.5711307,7.17849009 12.5951593,7.19631351 C12.6012086,7.20071786 12.6070733,7.20517454 12.6128994,7.20970461 C12.6196628,7.21507113 12.6225624,7.2173721 12.625449,7.21968877 L12.7071068,7.29289322 L15.7071068,10.2928932 C16.0976311,10.6834175 16.0976311,11.3165825 15.7071068,11.7071068 C15.3466228,12.0675907 14.7793918,12.0953203 14.3871006,11.7902954 L14.2928932,11.7071068 L13,10.415 L13,14 C13,14.5522847 12.5522847,15 12,15 C11.4871642,15 11.0644928,14.6139598 11.0067277,14.1166211 L11,14 L11,10.415 L9.70710678,11.7071068 C9.31658249,12.0976311 8.68341751,12.0976311 8.29289322,11.7071068 C7.93240926,11.3466228 7.90467972,10.7793918 8.20970461,10.3871006 L8.29289322,10.2928932 L11.2928932,7.29289322 L11.37,7.224 L11.38,7.215 L11.4046934,7.19633458 L11.4046934,7.19633458 C11.4288693,7.17849009 11.453725,7.1617187 11.4793398,7.14606743 L11.5159379,7.12467117 L11.5159379,7.12467117 C11.5357061,7.11379392 11.5561086,7.10337664 11.5769009,7.09365378 L11.628664,7.07122549 L11.628664,7.07122549 C11.6484208,7.06331574 11.6682023,7.05612249 11.6882636,7.04954668 C11.7031487,7.04472872 11.7185367,7.04009773 11.734007,7.03584514 C11.7555635,7.02983363 11.7772539,7.0246398 11.7992059,7.02016515 C11.8166247,7.01670217 11.834051,7.01362808 11.8515331,7.0110178 L11.909968,7.00399798 L11.909968,7.00399798 C11.9208131,7.00307004 11.9308872,7.00232561 11.9409686,7.0017331 L11.980824,7.00018018 C11.9872016,7.00006024 11.9935938,7 12,7 Z"/>
</svg>

<svg xmlns="http://www.w3.org/2000/svg" viewBox="0 0 24 24">
  <path d="M15 3c4.55 0 8 3.45 8 8s-3.45 8-8 8h-.5l-.08.1a8.85 8.85 0 0 1-2.53 2.16l-.3.16-.35.2-.33.16A2 2 0 0 1 8 20v-1c-3.73 0-7-3.64-7-8 0-4.46 3.5-8 8-8zm0 2H9c-3.4 0-6 2.64-6 6 0 3.3 2.43 6 5 6h1a1 1 0 0 1 1 1v2l.31-.16.34-.18a7.16 7.16 0 0 0 2.54-2.25A1 1 0 0 1 14 17h1c3.45 0 6-2.55 6-6s-2.55-6-6-6zm-3 2h.08l.07.01a1.08 1.08 0 0 1 .22.06l.05.02a1.02 1.02 0 0 1 .2.13l.09.07 3 3a1 1 0 0 1-1.32 1.5l-.1-.08L13 10.4V14a1 1 0 0 1-2 .12V10.4l-1.3 1.3a1 1 0 0 1-1.49-1.32l.08-.1 3-3 .08-.07h.01l.02-.02.08-.05.04-.03.06-.03.05-.02a.99.99 0 0 1 .22-.06h.09l.04-.01H12z"/>
</svg>
